src/assets/icons/icon_dropdown_gray.svg

<svg width="16" height="16" viewBox="0 0 16 16" fill="none" xmlns="http://www.w3.org/2000/svg">
<path d="M8 0C12.4183 0 16 3.58172 16 8C16 12.4183 12.4183 16 8 16C3.58172 16 0 12.4183 0 8C0 3.58172 3.58172 0 8 0ZM8 1C4.13401 1 1 4.13401 1 8C1 11.866 4.13401 15 8 15C11.866 15 15 11.866 15 8C15 4.13401 11.866 1 8 1ZM5.28431 6.58859L5.35355 6.64645L8 9.293L10.6464 6.64645C10.82 6.47288 11.0894 6.4536 11.2843 6.58859L11.3536 6.64645C11.5271 6.82001 11.5464 7.08944 11.4114 7.28431L11.3536 7.35355L8.35355 10.3536C8.17999 10.5271 7.91056 10.5464 7.71569 10.4114L7.64645 10.3536L4.64645 7.35355C4.45118 7.15829 4.45118 6.84171 4.64645 6.64645C4.82001 6.47288 5.08944 6.4536 5.28431 6.58859Z" fill="#a7a7a7"/>
</svg>

<svg xmlns="http://www.w3.org/2000/svg" width="16" height="16" fill="none" viewBox="0 0 16 16">
    <path fill="#a7a7a7" d="M8 0c4.418 0 8 3.582 8 8s-3.582 8-8 8-8-3.582-8-8 3.582-8 8-8zm0 1C4.134 1 1 4.134 1 8s3.134 7 7 7 7-3.134 7-7-3.134-7-7-7zM5.284 6.589l.07.057L8 9.293l2.646-2.647c.174-.173.443-.192.638-.057l.07.057c.173.174.192.443.057.638l-.057.07-3 3c-.174.173-.443.192-.638.057l-.07-.057-3-3c-.195-.196-.195-.512 0-.708.174-.173.443-.192.638-.057z"/>
</svg>
